icon-svg/floor-spot.svg

<?xml version="1.0" encoding="UTF-8"?>
<svg width="32px" height="32px" viewBox="0 0 32 32" fill="#44739e" version="1.1" xmlns="http://www.w3.org/2000/svg" xmlns:xlink="http://www.w3.org/1999/xlink">
            <path d="M21.7486468,14.2865312 C20.5556468,14.7075312 18.9546468,13.2575312 18.1746468,11.0465312 C17.3946468,8.83553118 17.7296468,6.70153118 18.9246468,6.28053118 C20.1176468,5.85853118 21.7186468,7.30853118 22.4986468,9.51953118 C23.2786468,11.7305312 22.9426468,13.8645312 21.7486468,14.2865312 M24.3716468,8.85553118 C23.2056468,5.61553118 20.8136468,3.48953118 19.0286468,4.10653118 L7.15364681,9.62853118 C5.79964681,10.1555312 5.60964681,12.8295312 6.73164681,15.6015312 C7.85264681,18.3745312 10.1606468,20.3505312 11.5156468,19.8235312 L13.0036468,19.2775312 L13.0036468,23.0235312 C10.0766468,23.1375312 7.72564681,23.7315312 7.14464681,24.5005312 C7.05164681,24.6205312 7.00464681,24.7475312 7.00464681,24.8755312 L7.00464681,26.1255312 C7.00464681,27.1605312 10.1386468,28.0005312 14.0026468,28.0005312 C17.8676468,28.0005312 21.0006468,27.1605312 21.0006468,26.1255312 L21.0006468,24.8755312 C21.0006468,23.9325312 18.3926468,23.1515312 15.0026468,23.0215312 L15.0026468,18.6065312 L23.2506468,15.8415312 C25.0356468,15.2235312 25.5366468,12.0955312 24.3716468,8.85553118"></path>
</svg>

<svg xmlns="http://www.w3.org/2000/svg" fill="#44739e" viewBox="0 0 24 24"><path d="M21.7486 14.2865c-1.193.421-2.794-1.029-3.574-3.24s-.445-4.345.75-4.766c1.193-.422 2.794 1.028 3.574 3.239s.444 4.345-.75 4.767m2.623-5.431c-1.166-3.24-3.558-5.366-5.343-4.749l-11.875 5.522c-1.354.527-1.544 3.201-.422 5.973 1.121 2.773 3.429 4.749 4.784 4.222l1.488-.546v3.746c-2.927.114-5.278.708-5.859 1.477-.093.12-.14.247-.14.375v1.25c0 1.035 3.134 1.875 6.998 1.875 3.865 0 6.998-.84 6.998-1.875v-1.25c0-.943-2.608-1.724-5.998-1.854v-4.415l8.248-2.765c1.785-.618 2.286-3.746 1.121-6.986"/></svg>
